assets/img/logo-bild.svg

<svg width="99" height="38" viewBox="0 0 99 38" fill="none" xmlns="http://www.w3.org/2000/svg">
<path d="M18.4352 28.6434C17.2958 29.3673 15.9576 29.7162 14.609 29.6411H11.3412V21.5716H14.6122C15.9602 21.4967 17.2979 21.8438 18.4385 22.5644C18.8986 22.9269 19.2704 23.3888 19.5261 23.9153C19.7817 24.4418 19.9146 25.0193 19.9146 25.6043C19.9146 26.1894 19.7817 26.7668 19.5261 27.2933C19.2704 27.8198 18.8986 28.2817 18.4385 28.6442L18.4352 28.6434ZM11.3404 7.7018H14.123C15.2536 7.63994 16.3722 7.96022 17.298 8.61087C17.6891 8.95396 18.0025 9.37638 18.2171 9.84987C18.4318 10.3234 18.5429 10.837 18.5429 11.3567C18.5429 11.8764 18.4318 12.3902 18.2171 12.8637C18.0025 13.3372 17.6891 13.7595 17.298 14.1026C16.3719 14.752 15.253 15.0702 14.123 15.0052H11.3404V7.7018ZM24.5287 18.115C26.3476 17.0508 27.7648 15.4186 28.5616 13.4706C29.3584 11.5226 29.4905 9.36712 28.9375 7.33676C28.3845 5.30641 27.1771 3.51413 25.5017 2.23667C23.8264 0.95921 21.7762 0.267619 19.6678 0.268586C19.382 0.268586 19.0979 0.287235 18.8203 0.312418C18.4857 0.292109 18.1528 0.273461 17.784 0.268586H0V37.4521H12.0267C12.0232 37.4536 12.0199 37.4555 12.0169 37.4578L14.0253 37.4521H17.731C17.8711 37.4521 17.9915 37.4424 18.1267 37.4391L21.5011 37.4293C23.8648 37.429 26.1505 36.5859 27.9463 35.0522C29.742 33.5185 30.9295 31.3951 31.2947 29.0648C31.6599 26.7345 31.1788 24.3505 29.938 22.3429C28.6973 20.3353 26.7786 18.8362 24.5279 18.1158" fill="#F27A31"/>
<path d="M49.3379 0.2677V37.4504H63.2589L73.5979 37.4578H76.2845V27.3679H61.5493V0.2677H49.3379Z" fill="#F27A31"/>
<path d="M33.2109 0.2677V37.4578L45.4313 37.4504V0.2677H33.2109Z" fill="#F27A31"/>
<path d="M80.1985 0.261353H71.2003V0.267005H65.4658V23.4703H76.2933V11.3942C77.3426 11.1062 78.4391 11.0307 79.5181 11.1724C80.5971 11.314 81.6367 11.6699 82.5756 12.219C83.5145 12.7681 84.3338 13.4993 84.985 14.3694C85.6361 15.2396 86.1061 16.231 86.3671 17.2853C86.6281 18.3396 86.6748 19.4354 86.5046 20.508C86.3343 21.5806 85.9505 22.6083 85.3758 23.5306C84.8011 24.4528 84.0471 25.2507 83.1583 25.8775C82.2695 26.5042 81.264 26.947 80.2009 27.1796V37.4619C85.0841 37.3708 89.7365 35.3711 93.1576 31.8928C96.5787 28.4145 98.4953 23.7354 98.4953 18.8616C98.4953 13.9879 96.5787 9.30873 93.1576 5.83041C89.7365 2.3521 85.0841 0.352443 80.2009 0.261353" fill="#F27A31"/>
</svg>

<svg width="99" height="38" fill="none" xmlns="http://www.w3.org/2000/svg"><path d="M18.435 28.643a6.465 6.465 0 01-3.826.998h-3.268v-8.07h3.271a6.49 6.49 0 013.827.993 3.875 3.875 0 011.476 3.04 3.867 3.867 0 01-1.476 3.04h-.004zM11.34 7.702h2.783a5.043 5.043 0 013.175.909 3.656 3.656 0 01.92 4.253 3.656 3.656 0 01-.92 1.239 5.028 5.028 0 01-3.175.902H11.34V7.702zM24.53 18.115a9.587 9.587 0 004.033-4.644 9.562 9.562 0 00.375-6.134 9.58 9.58 0 00-3.435-5.1A9.614 9.614 0 0019.668.269c-.286 0-.57.018-.848.043-.334-.02-.667-.039-1.036-.043H0v37.183h12.027a.046.046 0 00-.01.006l2.008-.006h3.706c.14 0 .26-.01.396-.013l3.374-.01c2.364 0 4.65-.843 6.445-2.377a9.876 9.876 0 001.992-12.71 9.91 9.91 0 00-5.41-4.226M49.338.268V37.45h13.92l10.34.008h2.686v-10.09H61.55V.268H49.338zM33.211.268v37.19l12.22-.008V.268h-12.22z" fill="#F27A31"/><path d="M80.198.261H71.2v.006h-5.735V23.47h10.828V11.394a8.167 8.167 0 016.282.825 8.145 8.145 0 013.792 5.066 8.117 8.117 0 01-3.21 8.593 8.158 8.158 0 01-2.956 1.302v10.282a18.662 18.662 0 0012.956-5.57 18.583 18.583 0 005.338-13.03c0-4.874-1.917-9.553-5.338-13.032A18.662 18.662 0 0080.201.261" fill="#F27A31"/></svg>
